X: 1
T: DANISH -- HORNPIPE
B: Ryan's Mammoth Collection of Fiddle Tunes
R: hornpipe
M: 2/4
L: 1/16
Z: Contributed 20000821215248 by John Chambers John.Chambers:weema.com
K: C
uG2 \
| c2c2 EGce | geag fedc | dcde gedc | Bcdc BGAB |
| c2c2 EGce | geag fedc | d^cde gfde | c2"4"e2c2 :|
|: vGG \
| G2BB B2dd | d2gg g2gg | g2g2B2G2 | G2G2A2B2 |
| c2c2 EGce | geag fedc | dcde fdBd | c2"4"e2c2 :|
